X: 8270
T: Corn Riggs
R: barndance
M: 4/4
K: Dmajor
|:ag|f2 ed f2 ed|cB cd e2 A2|f2 ed f2 ed|e2 a2 ab ag|
f2 ed f2 ed|cB cd e2 A2|Bc df ed cB|A2 d2 d2:|
|:fg|ab ag f2 ed|cB cd e2 A2|ab ag f2 ed|e2 a2 a2 fg|
ab ag f2 ed|cB cd e2 A2|Bc df ed cB|A2 d2 d2:|

